images/AirSwapLogo.svg

<svg height="250" viewBox="0 0 250 250" width="250" xmlns="http://www.w3.org/2000/svg"><g fill="#2b71ff"><path d="m182.066406 181.128906-56.996094 56.84375-28.328124-28.257812c30.542968-1.765625 59.980468-11.589844 85.324218-28.585938zm0 0"/><path d="m236.066406 122.742188-6.972656-6.953126-104.027344-103.753906-104.03125 103.753906-8.960937 8.941407c1.105469.882812 2.101562 1.875 3.207031 2.757812 3.652344 3.089844 7.414062 5.960938 11.289062 8.609375 41.167969 28.917969 92.1875 37.636719 139.332032 26.160156 19.253906-4.636718 37.515625-12.695312 54.003906-23.621093 4.097656-2.757813 8.082031-5.628907 11.953125-8.71875 2.105469-1.65625 4.207031-3.421875 6.308594-5.300781zm-83.554687 26.050781c-30.988281-19.097657-66.734375-29.03125-103.253907-28.921875 47.476563-20.527344 105.6875-23.398438 159.140626 7.285156-17.042969 10.816406-36.078126 18.214844-55.886719 21.636719zm0 0"/></g></svg>

<svg xmlns="http://www.w3.org/2000/svg" xmlns:xlink="http://www.w3.org/1999/xlink" width="250px" height="250px" viewBox="0 0 250 250" version="1.1">
<g id="surface1">
<path style=" stroke:none;fill-rule:nonzero;fill:rgb(16.862746%,44.313726%,100%);fill-opacity:1;" d="M 182.066406 181.128906 L 125.070312 237.972656 L 96.742188 209.714844 C 127.285156 207.949219 156.722656 198.125 182.066406 181.128906 Z M 182.066406 181.128906 "/>
<path style=" stroke:none;fill-rule:nonzero;fill:rgb(16.862746%,44.313726%,100%);fill-opacity:1;" d="M 236.066406 122.742188 L 229.09375 115.789062 L 125.066406 12.035156 L 21.035156 115.789062 L 12.074219 124.730469 C 13.179688 125.613281 14.175781 126.605469 15.28125 127.488281 C 18.933594 130.578125 22.695312 133.449219 26.570312 136.097656 C 67.738281 165.015625 118.757812 173.734375 165.902344 162.257812 C 185.15625 157.621094 203.417969 149.5625 219.90625 138.636719 C 224.003906 135.878906 227.988281 133.007812 231.859375 129.917969 C 233.964844 128.261719 236.066406 126.496094 238.167969 124.617188 Z M 152.511719 148.792969 C 121.523438 129.695312 85.777344 119.761719 49.257812 119.871094 C 96.734375 99.34375 154.945312 96.472656 208.398438 127.15625 C 191.355469 137.972656 172.320312 145.371094 152.511719 148.792969 Z M 152.511719 148.792969 "/>
</g>
</svg>
